src/components/00-materials/images-raw/P&C/Water Damage.svg

<svg xmlns="http://www.w3.org/2000/svg" viewBox="0 0 96 96"><path d="M21.6 27.53h24V81h-24zm7.2-5.33h9.6v5.33h-9.6zm36 24h9.6v5.33h-9.6zm-41.44-24h20.53V15H23.36s-.11 7.11 0 7.2zm-.05-7.2H64.8M45.6 37.8h28.8v8.4H45.6s.11-8.51 0-8.4zm25.2 14.4v2.4m0 3.6v2.4m0 3.6v2.4m0 3.6v2.4" fill="none" stroke="#00008f" stroke-linecap="round" stroke-linejoin="round" stroke-width="2"/></svg>

<svg xmlns="http://www.w3.org/2000/svg" viewBox="0 0 96 96"><defs><style>.cls-2{fill:none;stroke:#00008f;stroke-linecap:round;stroke-linejoin:round;stroke-width:2px}</style></defs><g id="Layer_2" ><g id="icons"><path class="cls-2" d="M21.6 27.53h24V81h-24zM28.8 22.2h9.6v5.33h-9.6zM64.8 46.2h9.6v5.33h-9.6zM23.36 22.2h20.53V15H23.36s-.11 7.11 0 7.2zM23.31 15H64.8M45.6 37.8h28.8v8.4H45.6s.11-8.51 0-8.4zM70.8 52.2v2.4M70.8 58.2v2.4M70.8 64.2v2.4M70.8 70.2v2.4"/></g></g></svg>
